X:1
T:The Gallowa' Hills
M:4/4
L:1/4
K:C
 G/4- E3/4| C3/2 D/2E/2 E F/2| G c3/4 c/4 G z/2 F/2| E C/2C/2 C/2 D E/2|\
 F D _B,| G/4 E3/4| C3/2 D/2 E3/2 F/2| G c E D/2C/2| F3/4 E/4 F/2A/2 G3/2 F/2|\
 D C C| E3/4 F/4| G3/4 G/4 c E3/2 F/2| G/4 G3/4 c E3/2 E/2| F D _B, D|\
 F_B/2-A/2 G| G/4- E3/4| C3/2 D/2 E F| G c E D/4 C3/4| F3/4 E/4 F/2A/2 G3/2 F/2|\
 D C C||
